order-bool-ascending-variant.svg

<svg fill="currentColor" viewBox="0 0 24 24"><path d="M4 13c-1.11 0-2 .89-2 2v4c0 1.11.89 2 2 2h4c1.11 0 2-.89 2-2v-4c0-1.11-.89-2-2-2m.2 1.5 1.06 1.05-3.99 3.95-2.53-2.55 1.07-1.05 1.47 1.49M4 3c-1.11 0-2 .89-2 2v4c0 1.11.89 2 2 2h4c1.11 0 2-.89 2-2V5c0-1.11-.89-2-2-2M4 5h4v4H4m8-4h10v2H12m0 12v-2h10v2m-10-8h10v2H12Z"/></svg>

<svg  viewBox="0 0 24 24" fill="currentColor"><path  d="M4 13C2.89 13 2 13.89 2 15V19C2 20.11 2.89 21 4 21H8C9.11 21 10 20.11 10 19V15C10 13.89 9.11 13 8 13M8.2 14.5L9.26 15.55L5.27 19.5L2.74 16.95L3.81 15.9L5.28 17.39M4 3C2.89 3 2 3.89 2 5V9C2 10.11 2.89 11 4 11H8C9.11 11 10 10.11 10 9V5C10 3.89 9.11 3 8 3M4 5H8V9H4M12 5H22V7H12M12 19V17H22V19M12 11H22V13H12Z"/></svg>
